dist/icons/social/vk.svg

<svg viewBox="0 0 30 30" xmlns="http://www.w3.org/2000/svg">
<path d="M3.97839 1.88048C2.21875 3.69699 2.21875 6.62072 2.21875 12.4624V13.5004C2.21875 19.3421 2.21875 22.2658 3.97839 24.0823C5.73804 25.8988 8.57022 25.8988 14.229 25.8988H15.2345C20.8933 25.8988 23.7255 25.8988 25.4851 24.0823C27.2448 22.2658 27.2448 19.3421 27.2448 13.5004V12.4624C27.2448 6.62072 27.2448 3.69699 25.4851 1.88048C23.7255 0.0639648 20.8933 0.0639648 15.2345 0.0639648H14.229C8.57022 0.0639648 5.73804 0.0639648 3.97839 1.88048ZM6.44189 7.924H9.29643C9.39139 12.8545 11.4974 14.9421 13.1676 15.3688V7.924H15.8602V12.1741C17.5081 11.9895 19.2342 10.0519 19.8208 7.924H22.5133C22.2899 9.02544 21.8541 10.075 21.2229 10.9977C20.5917 11.9203 19.7873 12.6988 18.8488 13.2813C19.8934 13.8176 20.8151 14.573 21.5525 15.5072C22.2954 16.4357 22.8317 17.514 23.139 18.6732H20.1727C19.9046 17.6697 19.3459 16.7644 18.5806 16.0839C17.8098 15.3977 16.8657 14.9652 15.8602 14.8325V18.6732H15.5362C9.8327 18.6732 6.57596 14.6365 6.44189 7.924Z"/>
</svg>

<svg viewBox="0 0 30 30" xmlns="http://www.w3.org/2000/svg"><path d="M3.978 1.88c-1.76 1.817-1.76 4.74-1.76 10.582V13.5c0 5.842 0 8.766 1.76 10.582C5.738 25.9 8.57 25.9 14.23 25.9h1.006c5.658 0 8.49 0 10.25-1.817 1.76-1.816 1.76-4.74 1.76-10.582v-1.038c0-5.841 0-8.765-1.76-10.582C23.725.064 20.893.064 15.235.064h-1.006c-5.659 0-8.491 0-10.25 1.816zm2.464 6.044h2.854c.095 4.93 2.201 7.018 3.872 7.445V7.924h2.692v4.25c1.648-.184 3.374-2.122 3.96-4.25h2.693a8.404 8.404 0 01-1.29 3.074 7.98 7.98 0 01-2.374 2.283 8.23 8.23 0 012.703 2.226 8.575 8.575 0 011.587 3.166h-2.966a5.307 5.307 0 00-1.592-2.59 5.086 5.086 0 00-2.72-1.25v3.84h-.325c-5.703 0-8.96-4.036-9.094-10.749z"/></svg>
